X: 2
T: Ymdaith Caerffili
Z: Abram 
S: https://thesession.org/tunes/4558#setting27081
R: barndance
M: 4/4
L: 1/8
K: Gmaj
D2 | G2 G>G G2 BG | A2 A>A A2 dc | BGdB gdcB | AGFE DcBA |
G2 G>G G2 BG | A2 A>A A2 dc | Bgec BAGF | G2 G>G G2 :|
Bc | d2 d>d d2 cB | A2 A>A A2 Bc | d2 d>d edcB | ADFA dcBA |
G>A B/A/B/G/ A>B c/B/c/A/ | B>c d/c/d/B/ c>d ec | Bgec BAGF | G2 G>G G2 :|
